X:1
T: Cairney Mount
C:
R:Reel
Q: 232
K:D
M:4/4
L:1/8
|:dB|A2 D2 F2 A2|BA GF E2 dB|A2 D2 F2 A2|Bc dA F2 A2|
D2 d2 d2 ef|e2 E2 E3D|F2 A2 Bc dB|A2 D2 D2 A2|
d3e de fd|gf ed e2 fe|d2 A2 F2 A2|Bc dA F2 A2|
D2 d2 d2 ef|e2 E2 E3D|F2 A2 Bc dB|A2 D2 D2:|
